!!!!SEGMENT: pl-kk--kk-i-6--050_gorczycki-grzegorz-gerwazy--omni-die-dic-mariae.krn
!!!cenid: 16xx:1046
!!!COM: Gorczycki, Grzegorz Gerwazy
!!!COM-rismid: pe30009207
!!!CDT: ~1666-1734/04/30
!!!CNT: Polish
!!!OTL: Omni die dic Mariae
!!!PDT:
!!!AGN:
!!!SMS-siglum: PL-Kk
!!!SMS-shelfmark: Kk.I.6
!!!SMS-shelfwork: 050 W
!!!SMS-variant:
!!!SMS-altvar:
!!!NIFC-rismid: 1001136552
!!!URL-scan: http://repozytorium.nifc.pl/skany/pl-kk-nut--i-6
!!!ONB-nifc: UWAGA: C (skan 0085, s. 166-167), T (skan 0196, s. 196-197), B (skan 0309, s. 200-201) Następny utwór: Salve virgo puerpera
!!!key:
**kern	**text	**text	**text	**text	**kern	**text	**text	**text	**kern	**text	**text	**text
*part3	*part3	*part3	*part3	*part3	*part2	*part2	*part2	*part2	*part1	*part1	*part1	*part1
*staff3	*staff3	*staff3	*staff3	*staff3	*staff2	*staff2	*staff2	*staff2	*staff1	*staff1	*staff1	*staff1
*	*v:1	*v:3	*v:5	*	*	*v:1	*v:3	*v:5	*	*v:1	*v:3	*v:5
*Iempty	*	*	*	*	*Itenor	*	*	*	*Ivox	*	*	*
*I"Baſsus.	*	*	*	*	*I"Tenor.	*	*	*	*I"Cantus.	*	*	*
*I'B	*	*	*	*	*I'T	*	*	*	*I'S	*	*	*
*clefF4	*	*	*	*	*clefC4	*	*	*	*clefC4	*	*	*
*k[b-]	*	*	*	*	*k[b-]	*	*	*	*k[b-]	*	*	*
*g:	*	*	*	*	*g:	*	*	*	*g:	*	*	*
*M3/2	*	*	*	*	*M3/2	*	*	*	*M3/2	*	*	*
=1	=1	=1	=1	=1	=1	=1	=1	=1	=1	=1	=1	=1
1G	Om-	Ip-	Haec	.	1B-	Om-	Ip-	Haec	1G	Om-	Ip-	Haec
*2\right	*	*	*	*	*2\right	*	*	*	*	*	*	*
2F\	-ni	-sam	[[per-	a-	2d\	-ni	-sam	a-	2A/	-ni	-sam	a-
=2-	=2	=2	=2	=2-	=2-	=2	=2	=2	=2-	=2	=2	=2
1B-	di-	co-	-so-	-man-	1d	di-	co-	-man-	1B-	di-	co-	-man-
*	*	*	*	*	*	*	*	*	*2\right	*	*	*
2B-\	-e	-le	-na	-da	2d\	-e	-le	-da	2B-\	-e	-le	-da
=3	=3	=3	=3	=3	=3	=3	=3	=3	=3	=3	=3	=3
1F	dic	ut	no	et	1c	dic	ut	et	1A	dic	ut	et
2G\	Ma-	de	-bis	lau-	2B-\	Ma-	de	lau-	2G/	Ma-	de	lau-
=4-	=4	=4	=4	=4-	=4-	=4	=4	=4	=4-	=4	=4	=4
1D	-ri-	mo-	do-	-dan-	1A	-ri-	mo-	-dan-	1G	-ri-	mo-	-dan-
2D/	-ae	-le	-na	-da	2A/	-ae	-le	-da	2F#X/	-ae	-le	-da
=5	=5	=5	=5	=5	=5	=5	=5	=5	=5	=5	=5	=5
1BB-	me-	cri-	con-	cunc-	1d	me-	cri-	Cunc-	1B-	me-	cri-	Cunc-
2E-X\	-a	-mi-	-tu-	-tis	2B-\	-a	-mi-	-tis	2G/	-a	-mi-	-tis
=6-	=6	=6	=6	=6-	=6-	=6	=6	=6	=6-	=6	=6	=6
1C	lau-	-num	lit	spe-	1e-X	lau-	-num	spe-	1c	lau-	-num	Spe-
(2.D\	-des	te	cae-	ci-	1d	-des	te	ci-	1B-	-des	te	ci-
=7-	=7	=7	=7	=7-	=7-	=7	=7	=7	=7-	=7	=7	=7
4E-X\)	.	.	-le-	.	.	.	.	.	.	.	.	.
2.F\	a-	li-	-sti-	-a-	2.c\	a-	li-	-a-	2B-\	a-	li-	-a-
.	.	.	.	.	.	.	.	.	2A/	-ni-	-be-	-li-
4FF/	-ni-	-be-	.	-li-	4c\	-ni-	-be-	-li-	.	.	.	.
=8-	=8	=8	=8	=8-	=8-	=8	=8	=8	=8-	=8	=8	=8
1.BB-	-ma	-ret	-a]]	-ter	1.B-	-ma	-ret	-ter	1.B-	-ma	-ret	-ter
!LO:PB:g=original	!	!	!	!	!LO:PB:g=original	!	!	!	!LO:PB:g=original	!	!	!
=9	=9	=9	=9	=9	=9	=9	=9	=9	=9	=9	=9	=9
1B-	e-	hanc	ve-	.	1d	e-	hanc	Ve-	1B-	e-	hanc	ve-
2B-\	-ius	ap-	-ne-	.	2d\	-ius	ap-	-ne-	2B-\	-ius	ap-	-ne-
=10-	=10	=10	=10	=10-	=10-	=10	=10	=10	=10-	=10	=10	=10
1F	fes-	-pel-	-ra-	.	1c	fes-	-pel-	-ra-	1B-	fes-	-pel-	-ra-
2F\	-ta	-la	-ri	.	2c\	-ta	-la	-ri	2A/	-ta	-la	-ri
=11-	=11	=11	=11	=11-	=11-	=11	=11	=11	=11	=11	=11	=11
1G	e-	nè	prae-	.	1B-	e-	nè	prae-	2A/	e-	nè	prae-
.	.	.	.	.	.	.	.	.	1G	-ius	pro-	-di-
2G\	-ius	pro-	-di-	.	2B-\	-ius	pro-	-di-	.	.	.	.
=12-	=12	=12	=12	=12-	=12-	=12	=12	=12	=12-	=12	=12	=12
1D	ges-	-cel-	-ca-	.	1A	ges-	-cel-	-ca-	1d	ges-	-cel-	-ca-
2D/	-ta	-la	-ri	.	2A/	-ta	-la	-ri	2d\	-ta	-la	-ri
=13	=13	=13	=13	=13	=13	=13	=13	=13	=13	=13	=13	=13
2.G\	co-	vi-	e-	.	2.B-\	co-	vi-	e-	2.d\	co-	vi-	e-
4G\	-le	-ti-	-am	.	4c\	-le	-ti-	-am	4c\	-le	-ti-	-am
2G\	de-	-o-	de-	.	2d\	de-	-o-	de-	2B-\	de-	-o-	de-
=14-	=14	=14	=14	=14-	=14-	=14	=14	=14	=14-	=14	=14	=14
2C/	-vo-	-rum	-cet	.	(4c\	-vo-	-rum	-cet	2e-X\	-vo-	-rum	-cet
.	.	.	.	.	4B-\)	.	.	.	.	.	.	.
2.D/	-tiſ-	ſu-	ju-	.	2.A/	-tiſ-	ſu-	ju-	2.d\	-tiſ-	ſu-	ju-
4D/	-si-	-pe-	-gi-	.	4A/	-si-	-pe-	gi-	4c\	-si-	-pe-	-gi-
=15-	=15	=15	=15	=15-	=15-	=15	=15	=15	=15-	=15	=15	=15
!	!	!	!	!	!	!	!	!	!LO:N:acc=#	!	!	!
!LO:TX:t=P:problem:kreska taktowa początek/koniec repetycji	!	!	!	!	!LO:TX:t=P:problem:kreska taktowa początek/koniec repetycji	!	!	!	!LO:TX:t=P:problem:kreska taktowa początek/koniec repetycji	!	!	!
1.GG	-ma.	-ret.	-ter	.	1.G	-ma.	-ret.	-ter	1.Bn	-ma.	-ret.	-ter.
!LO:PB:g=original	!	!	!	!	!LO:PB:g=original	!	!	!	!LO:PB:g=original	!	!	!
=16||	=16||	=16||	=16||	=16||	=16||	=16||	=16||	=16||	=16||	=16||	=16||	=16||
*M4/4	*	*	*	*	*M4/4	*	*	*	*M4/4	*	*	*
*met(c)	*	*	*	*	*met(c)	*	*	*	*met(c)	*	*	*
*	*v:2	*v:4	*	*	*	*v:2	*v:4	*	*	*v:2	*v:4	*
4E-X\	Con-	Haec	.	.	4B-\	Con-	Haec	.	4G/	Con-	Haec	.
4D/	-tem-	per-	.	.	4B-\	-tem-	per-	.	4B-\	-tem-	per-	.
4E-\	-pla-	-so-	.	.	4B-\	-pla-	-so-	.	4G/	-pla-	-so-	.
4BB-/	-re	-na	.	.	4B-\	-re	-na	.	4B-\	-re	-na	.
=17	=17	=17	=17	=17	=17	=17	=17	=17	=17	=17	=17	=17
4F\	et	no-	.	.	4c\	et	no-	.	4A/	et	no-	.
4En\	mi-	-bis	.	.	4c\	mi-	-bis	.	4G/	mi-	-bis	.
4F\	-ra-	do-	.	.	4c\	-ra-	do-	.	4A/	-ra-	do-	.
4C/	-re	-na	.	.	4c\	-re	-na	.	4G/	-re	-na	.
=18	=18	=18	=18	=18	=18	=18	=18	=18	=18	=18	=18	=18
4G\	e-	con-	.	.	4d\	e-	con-	.	4B-\	e-	Con-	.
4F#X\	-ius	-tu-	.	.	4d\	-jus	-tu-	.	4A\	-ius	-tu-	.
4G\	cel-	-lit	.	.	4d\	cel-	-lit	.	4B-\	Cel-	-lit	.
4C/	-si-	Cae-	.	.	4e-X\	-si-	Cae-	.	4c\	-si-	cae-	.
=19-	=19	=19	=19	=19-	=19-	=19	=19	=19	=19-	=19	=19	=19
4.D/	-tu-	-les-	.	.	4.d\	-tu-	-les-	.	4.A/	-tu-	-les-	.
8D/	-di-	-ti-	.	.	8d\	-di-	-ti-	.	8A/	-di-	-ti-	.
2GG/	-nem	-a	.	.	2d\	-nem	-a	.	2G/	-nem	-a,	.
=20	=20	=20	=20	=20	=20	=20	=20	=20	=20	=20	=20	=20
(8C\L	dic	haec	.	.	4e-X\	dic	haec	.	4G/	dic	haec	.
8D\J)	.	.	.	.	.	.	.	.	.	.	.	.
(8E-X\L	fe-	Re-	.	.	4e-\	fe-	Re-	.	4c\	fe-	Re-	.
8F\J)	.	.	.	.	.	.	.	.	.	.	.	.
4G\	-li-	-gi-	.	.	4d\	-li-	-gi-	.	4c\	-li-	-gi-	.
!	!	!	!	!	!	!	!	!	!LO:N:acc=#	!	!	!
4G\	-cem	-na	.	.	4d\	-cem	-na	.	4Bn\	-cem	-na	.
!LO:PB:g=original	!	!	!	!	!LO:PB:g=original	!	!	!	!LO:PB:g=original	!	!	!
=21-	=21	=21	=21	=21-	=21-	=21	=21	=21	=21	=21	=21	=21
(8E-X\L	Ge-	nos	.	.	4e-X\	Ge-	nos	.	4B-X\	Ge-	nos	.
8F\J)	.	.	.	.	.	.	.	.	.	.	.	.
(8G\L	-ni-	Di-	.	.	4e-\	-ni-	Di-	.	4e-X\	-ni-	Di-	.
8A-X\J)	.	.	.	.	.	.	.	.	.	.	.	.
4B-\	-tri-	-vi-	.	.	4B-\	-tri-	-vi-	.	4e-\	-tri-	-vi-	.
4BB-/	-cem	-nâ	.	.	4B-\	-cem	-nâ	.	4d\	-cem	-na	.
=22	=22	=22	=22	=22	=22	=22	=22	=22	=22	=22	=22	=22
4G\	dic	il-	.	.	4B-\	dic	il-	.	4e-X\	dic	il-	.
4G\	be-	-lus-	.	.	4B-\	Be-	-lus-	.	4e-\	Be-	-lus-	.
4A-X\	-a-	-tra-	.	.	8c\L	-a-	-tra-	.	4c\	-a-	-tra-	.
.	.	.	.	.	8d\J	.	.	.	.	.	.	.
4A-\	-tam	-vit	.	.	4e-X\	-tam	-vit	.	4c\	-tam	-vit	.
=23-	=23	=23	=23	=23-	=23	=23	=23	=23	=23-	=23	=23	=23
4.B-\	Vir-	gra-	.	.	4.e-y\	Vir-	gra-	.	4.B-\	Vir-	gra-	.
8BB-/	-gi-	-ti-	.	.	8d\	-gi-	-ti-	.	8B-\	-gi-	-ti-	.
2E-X\	-nem	-â	.	.	2e-\	-nem	-â	.	2B-\	-nem	-a	.
=24	=24	=24	=24	=24	=24	=24	=24	=24	=24	=24	=24	=24
4D/	dic	il-	.	.	4B-X\	dic	il-	.	4d\	dic	il-	.
4D/	be-	-lus-	.	.	4f\	be-	-lus-	.	4d\	be-	-lus-	.
4E-X\	-a-	-tra-	.	.	4e-X\	-a-	-tra-	.	4c\	-a-	-tra-	.
4E-\	-tam	-vit	.	.	8e-\L	-tam	-vit	.	4B-\	-tam	-vit	.
.	.	.	.	.	8d\J	.	.	.	.	.	.	.
=25-	=25	=25	=25	=25-	=25	=25	=25	=25	=25-	=25	=25	=25
4.F\	Vir-	gra-	.	.	4.c\	Vir-	gra-	.	4B-\	Vir-	gra-	.
.	.	.	.	.	.	.	.	.	4A/	-gi-	-ti-	.
8FF/	-gi-	-ti-	.	.	8c\	-gi-	-ti-	.	.	.	.	.
!LO:TX:t=P:problem:kreska taktowa początek/koniec repetycji	!	!	!	!	!LO:TX:t=P:problem:kreska taktowa początek/koniec repetycji	!	!	!	!LO:TX:t=P:problem:kreska taktowa początek/koniec repetycji	!	!	!
2BB-/	-nem.	-â	.	.	2d\	-nem	-â.	.	2B-\	-nem.	-â.	.
==	==	==	==	==	==	==	==	==	==	==	==	==
*-	*-	*-	*-	*-	*-	*-	*-	*-	*-	*-	*-	*-
!!!system-decoration: [(s1,s2,s3)]
!!!AIN: 1 empty 1 tenor 1 vox
!!!ENC: Filip Voros
!!!END: 2021-10-25
!!!ENC: Andrzej Kubiczek
!!!END: 2021-10-26
